X:1
T:The Wedding Gift
R:waltz
M:3/4
L:1/8
K:D
A|D2D/A/ F<Ac/A/|~d2c/A/ B<GG/B/|D2D/A/ F<Ac/A/|d/B/G{FG}F E2E/A/|
|D2D/A/ F<Ac/A/|~d2c/A/ {Bc}dz (3B/d/B/|A/F/DD/A/ B/G/d{FG}F|E2E/D/ D2D/A/|
|fdA ~e2c/A/|~d2c/A/ B/G2e/|fdA ~e2c/A/|d/B/G{FG}F E2-E/e/|
|fdA ~e2c/A/|~d2c/A/ {Bc}dz (3B/d/B/|A/F/DD/A/ B/G/d{FG}F|E2E/D/ D2A|